packages/dnb-ui-lib/assets/icons/file.svg

<svg width="16" height="16" viewBox="0 0 16 16" fill="none" xmlns="http://www.w3.org/2000/svg">
<path d="M5.5 3.54545H8.09091M5.5 6H10M5.5 12.4545H9.36364M13.8182 5.50267V14C13.8182 14.5523 13.3705 15 12.8182 15H4C3.44772 15 3 14.5523 3 14V2C3 1.44772 3.44772 1 4 1L9.85438 1C10.1485 1 10.4278 1.12951 10.6178 1.35406L13.5816 4.85673C13.7343 5.03729 13.8182 5.26615 13.8182 5.50267Z" stroke="black" stroke-width="1.5" stroke-linecap="round" stroke-linejoin="round"/>
</svg>

<svg width="16" height="16" viewBox="0 0 16 16" fill="none" xmlns="http://www.w3.org/2000/svg"><path d="M5.5 3.545h2.59M5.5 6H10m-4.5 6.454h3.864m4.454-6.951V14a1 1 0 01-1 1H4a1 1 0 01-1-1V2a1 1 0 011-1h5.854a1 1 0 01.764.354l2.964 3.503a1 1 0 01.236.646z" stroke="#000" stroke-width="1.5" stroke-linecap="round" stroke-linejoin="round"/></svg>
